svg/combine_harvester.svg

<svg xmlns="http://www.w3.org/2000/svg" width="24" height="24" viewBox="0 0 24 24"><title>combine_harvester</title><path d="M11 4a25.89 25.89 0 0 0-3.41.19 2.72 2.72 0 0 0-1.81 1.09 2.25 2.25 0 0 0-.34 1.78L6 10a2 2 0 0 0-2 2v2h14v-2a2 2 0 0 0-.91-1.69L21.41 6H23V4h-2.41l-4.25 4.25.22-1.15a2.31 2.31 0 0 0-.37-1.82 2.72 2.72 0 0 0-1.81-1.09A25.44 25.44 0 0 0 11 4zm-1 2v4H8l-.62-3.34a.25.25 0 0 1 .06-.22.62.62 0 0 1 .44-.25A16.7 16.7 0 0 1 10 6zm2 0a18.2 18.2 0 0 1 2.09.16.62.62 0 0 1 .44.25.28.28 0 0 1 .06.25L14 9.81V10h-2zm-6 5a1 1 0 1 1-1 1 1 1 0 0 1 1-1zm10 0a1 1 0 1 1-1 1 1 1 0 0 1 1-1zM1 15v2h20v-2zm0 3v2h20v-2z"/><path fill="none" d="M0 0h24v24H0z"/></svg>

<svg xmlns="http://www.w3.org/2000/svg" width="24" height="24" viewBox="0 0 24 24">
  <title>combine_harvester</title>
  <path d="M11,4a25.89,25.89,0,0,0-3.41.19A2.72,2.72,0,0,0,5.78,5.28a2.25,2.25,0,0,0-.34,1.78L6,10a2,2,0,0,0-2,2v2H18V12a2,2,0,0,0-.91-1.69L21.41,6H23V4H20.59L16.34,8.25l.22-1.15a2.31,2.31,0,0,0-.37-1.82,2.72,2.72,0,0,0-1.81-1.09A25.44,25.44,0,0,0,11,4ZM10,6v4H8L7.38,6.66a.25.25,0,0,1,.06-.22.62.62,0,0,1,.44-.25A16.7,16.7,0,0,1,10,6Zm2,0a18.2,18.2,0,0,1,2.09.16.62.62,0,0,1,.44.25.28.28,0,0,1,.06.25L14,9.81,14,10H12ZM6,11a1,1,0,1,1-1,1A1,1,0,0,1,6,11Zm10,0a1,1,0,1,1-1,1A1,1,0,0,1,16,11ZM1,15v2H21V15Zm0,3v2H21V18Z"/>
  <rect width="24" height="24" fill="none"/>
</svg>
